icon/pk/tape.svg

<svg viewBox="0 0 48 48" fill="none" xmlns="http://www.w3.org/2000/svg" height="1em" width="1em">
  <path d="M4 12C4 10.8954 4.89543 10 6 10H10H38H42C43.1046 10 44 10.8954 44 12V36C44 37.1046 43.1046 38 42 38H6C4.89543 38 4 37.1046 4 36V12Z" fill="#2F88FF" stroke="black" stroke-width="4" stroke-linejoin="round"/>
  <path fill-rule="evenodd" clip-rule="evenodd" d="M14.2701 10C12.5744 10 11.6481 11.9777 12.7336 13.2804L14.4003 15.2804C14.7803 15.7364 15.3432 16 15.9367 16H24H32.0633C32.6568 16 33.2197 15.7364 33.5997 15.2804L35.2664 13.2804C36.3519 11.9777 35.4256 10 33.7299 10H14.2701Z" stroke="white" stroke-width="4" stroke-linecap="round" stroke-linejoin="round"/>
  <path d="M6 10V10H10H38H42" stroke="black" stroke-width="4" stroke-linecap="round" stroke-linejoin="round"/>
  <path d="M33 31C35.2091 31 37 29.2091 37 27C37 24.7909 35.2091 23 33 23C30.7909 23 29 24.7909 29 27C29 29.2091 30.7909 31 33 31Z" fill="#43CCF8" stroke="white" stroke-width="4" stroke-linejoin="round"/>
  <path d="M15 31C17.2091 31 19 29.2091 19 27C19 24.7909 17.2091 23 15 23C12.7909 23 11 24.7909 11 27C11 29.2091 12.7909 31 15 31Z" fill="#43CCF8" stroke="white" stroke-width="4" stroke-linejoin="round"/>
</svg>

<svg width="48" height="48" fill="none" xmlns="http://www.w3.org/2000/svg"><path d="M4 12a2 2 0 0 1 2-2h36a2 2 0 0 1 2 2v24a2 2 0 0 1-2 2H6a2 2 0 0 1-2-2V12Z" fill="#2F88FF" stroke="#000" stroke-width="4" stroke-linejoin="round"/><path clip-rule="evenodd" d="M14.27 10c-1.696 0-2.622 1.978-1.536 3.28l1.666 2a2 2 0 0 0 1.537.72h16.126a2 2 0 0 0 1.537-.72l1.666-2c1.086-1.302.16-3.28-1.536-3.28H14.27Z" stroke="#fff" stroke-width="4" stroke-linecap="round" stroke-linejoin="round"/><path d="M6 10v0h36" stroke="#000" stroke-width="4" stroke-linecap="round" stroke-linejoin="round"/><path d="M33 31a4 4 0 1 0 0-8 4 4 0 0 0 0 8ZM15 31a4 4 0 1 0 0-8 4 4 0 0 0 0 8Z" fill="#43CCF8" stroke="#fff" stroke-width="4" stroke-linejoin="round"/></svg>
